src/static/logos/reactivex.svg

<?xml version="1.0" encoding="UTF-8" standalone="no"?>
<svg width="256px" height="247px" viewBox="0 0 256 247" version="1.1" xmlns="http://www.w3.org/2000/svg" xmlns:xlink="http://www.w3.org/1999/xlink" preserveAspectRatio="xMidYMid">
    <defs>
        <radialGradient cx="78.7636112%" cy="37.8476394%" fx="78.7636112%" fy="37.8476394%" r="89.8725577%" id="radialGradient-1">
            <stop stop-color="#F80090" offset="0%"></stop>
            <stop stop-color="#4D008E" offset="100%"></stop>
        </radialGradient>
        <radialGradient cx="68.7389016%" cy="4.39833672%" fx="68.7389016%" fy="4.39833672%" r="81.7284786%" id="radialGradient-2">
            <stop stop-color="#57008E" offset="0%"></stop>
            <stop stop-color="#5C008E" offset="29.1746283%"></stop>
            <stop stop-color="#F80090" offset="100%"></stop>
        </radialGradient>
        <linearGradient x1="18.2386532%" y1="0%" x2="81.1591125%" y2="84.3374763%" id="linearGradient-3">
            <stop stop-color="#F70090" offset="0%"></stop>
            <stop stop-color="#E50090" offset="66.9712865%"></stop>
            <stop stop-color="#D6008F" stop-opacity="0.2" offset="82.7147533%"></stop>
            <stop stop-color="#C10090" stop-opacity="0" offset="100%"></stop>
        </linearGradient>
        <linearGradient x1="64.9060589%" y1="71.5585538%" x2="44.2897699%" y2="50%" id="linearGradient-4">
            <stop stop-color="#B2008F" stop-opacity="0.151340138" offset="0%"></stop>
            <stop stop-color="#F70090" stop-opacity="0.4" offset="40.0350765%"></stop>
            <stop stop-color="#F60090" stop-opacity="0.891668" offset="64.8995536%"></stop>
            <stop stop-color="#FF0090" offset="100%"></stop>
        </linearGradient>
    </defs>
	<g>
		<path d="M16.6852208,157.125328 C3.56690702,87.3798324 38.2363025,20.1145078 117.808706,11.1662199 C106.835616,-0.558801732 91.8452087,-0.646905628 84.9481697,0.779380087 C72.770288,4.66044372 73.1525932,12.540855 59.3390152,22.7199675 C45.6064437,30.5634307 38.7094156,24.5568182 28.7057455,32.6879515 C18.7234849,40.7583874 25.6888528,59.2851732 21.5022823,62.8870857 C17.3464381,70.0905489 4.45500952,76.5077264 2.10834286,85.6062545 C0.168948918,97.2420641 7.37241212,105.553752 7.09535584,115.527778 C7.92652468,123.839467 -1.17920693,128.539449 0.129052814,135.275796 C4.0477368,146.281025 11.600845,152.904887 15.1615723,155.958047 C15.9781085,156.533531 16.8404881,157.95083 16.6852208,157.125328 L16.6852208,157.125328 Z" fill="#FF0090"></path>
		<path d="M158.275491,60.578542 C155.368486,60.578542 153.011422,58.2214776 153.011422,55.3144727 C153.011422,52.4074679 155.368486,50.0504035 158.275491,50.0504035 C161.182496,50.0504035 163.53956,52.4074679 163.53956,55.3144727 C163.53956,58.2214776 161.182496,60.578542 158.275491,60.578542 L158.275491,60.578542 Z M19.7566405,164.732808 C7.1500258,104.116773 46.1602355,53.4676156 121.704062,78.4026805 C166.031404,104.334594 221.793282,102.646102 224.307422,85.8832 C230.514061,65.7878769 196.047681,24.3767065 144.515214,13.5715117 C42.2814476,-6.37654026 -12.8335943,104.116774 19.7566405,164.732808 L19.7566405,164.732808 Z" fill="url(#radialGradient-1)"></path>
		<path d="M187.458604,171.493257 C202.639072,173.137863 217.048769,169.494573 230.402327,158.61014 C210.228197,181.112651 185.002777,192.426521 156.059262,195.505171 C169.878829,207.254019 183.20579,212.546348 195.955366,210.281136 C160.528734,220.05679 130.847947,209.296529 94.7424273,173.340673 C92.8517347,183.020022 103.074741,198.100667 113.611745,207.727264 C52.4742909,181.221845 47.1143627,98.6544556 121.66531,78.3442237 C44.3844415,41.214641 0.686373501,113.357693 22.1558444,172.485931 C43.1623368,218.026693 99.1402667,253.085223 160.492163,245.3753 C190.292928,241.7251 234.79401,221.178935 252.973664,172.485931 C240.160919,183.983766 217.257941,193.997836 207.037617,194.765984 C241.628648,177.478781 260.301586,148.103896 255.060336,107.955387 C247.895106,125.013742 238.441392,138.114625 226.616076,147.112305 C251.735653,107.955387 247.425219,87.716426 228.832526,65.4732398 C242.131228,102.044668 224.928249,142.633967 187.458604,171.493257 L187.458604,171.493257 Z" fill="url(#radialGradient-2)"></path>
		<path d="M169.707072,213.625541 C167.082407,213.13513 175.656929,217.098842 159.079366,212.710316 C142.501804,208.32179 125.622502,204.092744 94.7424273,173.340673 C92.8517347,183.020022 103.074741,198.100667 113.611745,207.727264 C142.056275,227.564927 122.711866,218.286797 166.051946,233.269481 C169.52976,226.346862 169.707072,220.195346 169.707072,213.625541 L169.707072,213.625541 Z" fill="url(#linearGradient-3)"></path>
		<path d="M114.601372,57.8510108 C114.601372,57.8510108 118.369452,52.2893628 119.836219,49.7810251 C121.633641,46.7072319 124.393939,41.104618 124.393939,41.104618 C124.393939,41.104618 95.389611,31.6417749 88.2716448,30.4871665 C66.1450215,36.2308801 66.0645022,45.5009559 78.435065,59.690116 C79.8114806,61.2693368 114.601372,57.8510108 114.601372,57.8510108 L114.601372,57.8510108 Z" fill="url(#linearGradient-4)"></path>
	</g>
</svg>

<svg width="256" height="247" xmlns="http://www.w3.org/2000/svg" preserveAspectRatio="xMidYMid"><defs><radialGradient cx="78.764%" cy="37.848%" fx="78.764%" fy="37.848%" r="89.873%" id="a"><stop stop-color="#F80090" offset="0%"/><stop stop-color="#4D008E" offset="100%"/></radialGradient><radialGradient cx="68.739%" cy="4.398%" fx="68.739%" fy="4.398%" r="81.728%" id="b"><stop stop-color="#57008E" offset="0%"/><stop stop-color="#5C008E" offset="29.175%"/><stop stop-color="#F80090" offset="100%"/></radialGradient><linearGradient x1="18.239%" y1="0%" x2="81.159%" y2="84.337%" id="c"><stop stop-color="#F70090" offset="0%"/><stop stop-color="#E50090" offset="66.971%"/><stop stop-color="#D6008F" stop-opacity=".2" offset="82.715%"/><stop stop-color="#C10090" stop-opacity="0" offset="100%"/></linearGradient><linearGradient x1="64.906%" y1="71.559%" x2="44.29%" y2="50%" id="d"><stop stop-color="#B2008F" stop-opacity=".151" offset="0%"/><stop stop-color="#F70090" stop-opacity=".4" offset="40.035%"/><stop stop-color="#F60090" stop-opacity=".892" offset="64.9%"/><stop stop-color="#FF0090" offset="100%"/></linearGradient></defs><path d="M16.685 157.125C3.567 87.38 38.236 20.115 117.81 11.166 106.836-.559 91.845-.647 84.949.78 72.77 4.66 73.152 12.541 59.338 22.72c-13.733 7.843-20.63 1.837-30.633 9.968-9.983 8.07-3.017 26.597-7.204 30.2-4.156 7.203-17.047 13.62-19.394 22.718-1.94 11.636 5.264 19.948 4.987 29.922.832 8.311-8.274 13.011-6.966 19.748 3.919 11.005 11.472 17.629 15.033 20.682.816.576 1.678 1.993 1.523 1.167z" fill="#FF0090"/><path d="M158.275 60.579a5.264 5.264 0 11.001-10.53 5.264 5.264 0 010 10.53zM19.757 164.733C7.15 104.117 46.16 53.468 121.704 78.403c44.327 25.932 100.09 24.243 102.603 7.48 6.207-20.095-28.26-61.506-79.792-72.311C42.281-6.377-12.834 104.117 19.757 164.732z" fill="url(#a)"/><path d="M187.459 171.493c15.18 1.645 29.59-1.998 42.943-12.883-20.174 22.503-45.4 33.817-74.343 36.895 13.82 11.749 27.147 17.041 39.896 14.776-35.426 9.776-65.107-.984-101.213-36.94-1.89 9.679 8.333 24.76 18.87 34.386-61.138-26.505-66.498-109.073 8.053-129.383-77.28-37.13-120.979 35.014-99.51 94.142 21.007 45.54 76.985 80.6 138.337 72.89 29.8-3.65 74.302-24.197 92.482-72.89-12.813 11.498-35.716 21.512-45.936 22.28 34.59-17.287 53.264-46.662 48.022-86.81-7.165 17.058-16.619 30.159-28.444 39.156 25.12-39.157 20.81-59.396 2.217-81.639 13.298 36.572-3.905 77.161-41.374 106.02z" fill="url(#b)"/><path d="M169.707 213.626c-2.625-.49 5.95 3.473-10.628-.916-16.577-4.388-33.456-8.617-64.337-39.37-1.89 9.68 8.333 24.76 18.87 34.387 28.444 19.838 9.1 10.56 52.44 25.542 3.478-6.922 3.655-13.074 3.655-19.643z" fill="url(#c)"/><path d="M114.601 57.851s3.768-5.562 5.235-8.07c1.798-3.074 4.558-8.676 4.558-8.676S95.39 31.642 88.272 30.487c-22.127 5.744-22.207 15.014-9.837 29.203 1.376 1.58 36.166-1.839 36.166-1.839z" fill="url(#d)"/></svg>
